X: 148
T:Tim Moloney's
R:reel
Z:version from Randal Bays
M:C|
K:G
|:~G3 A BddB|dedB gedB|G2BG dGBG|c2Bc AGEG|
D~G3 BddB|dedB d2gf|(3efg ed Bdef|gedB AGED:|
|:~g3a bgag|eBBA Bdef|g2bg abge|dB-B2 AGED|
d~g3 bgag|eBBA B2gf|(3efg ed Bdef|gedB AGED:|
